public/topics/28.svg

<svg width="250" height="250" viewBox="0 0 250 250" fill="none" xmlns="http://www.w3.org/2000/svg">
<rect width="250" height="250" rx="30" fill="#00CC66"/>
<path d="M56.2 174.2C60.7333 174.467 63.7333 174.6 65.2 174.6C69.7333 174.6 73.7333 174.533 77.2 174.4C80.8 174.267 83.8667 174.133 86.4 174C92.9333 173.6 98.8 173.4 104 173.4C109.067 173.4 112.8 174.733 115.2 177.4C117.6 180.067 118.8 183.6 118.8 188C118.8 190.133 117.4 191.867 114.6 193.2C111.8 194.4 108.933 195 106 195C103.467 195 98.2 194.733 90.2 194.2C80.6 193.4 73.0667 193 67.6 193C64.6667 193 61.2 193.2 57.2 193.6C55.6 193.733 53.6667 193.867 51.4 194C49.1333 194.133 46.6 194.2 43.8 194.2C38.4667 194.2 34.4 193.467 31.6 192C28.8 190.533 27.4 187.867 27.4 184C27.4 180.667 28.7333 177.267 31.4 173.8C34.0667 170.333 37.8 166.2 42.6 161.4L47.4 156.6C49.5333 154.333 53.4667 150.467 59.2 145C68.6667 136.467 76 128.933 81.2 122.4C86.5333 115.867 89.2 109.4 89.2 103C89.2 98.8667 87.2 95.5333 83.2 93C79.3333 90.3333 74.8667 89 69.8 89C62.0667 89 56.4667 90.7333 53 94.2C49.6667 97.5333 48 102.4 48 108.8C48 110.4 47.0667 111.867 45.2 113.2C43.4667 114.4 41.2667 115 38.6 115C34.8667 115 32.2667 113.667 30.8 111C29.3333 108.333 28.6 105.067 28.6 101.2C28.6 95.0667 30.4667 89.6667 34.2 85C37.9333 80.2 43 76.4667 49.4 73.8C55.9333 71.1333 63.1333 69.8 71 69.8C76.6 69.8 82.4 71.2 88.4 74C94.5333 76.6667 99.6 80.3333 103.6 85C107.733 89.5333 109.8 94.5333 109.8 100C109.8 108.267 107.733 116.133 103.6 123.6C99.4667 131.067 94.6 137.733 89 143.6C83.5333 149.333 76.4 156.133 67.6 164C63.3333 167.6 59.5333 171 56.2 174.2ZM199.673 128.8C207.807 132 214.34 136.267 219.273 141.6C224.207 146.933 226.673 153.067 226.673 160C226.673 162 226.207 164.533 225.273 167.6C224.473 170.533 223.34 173.067 221.873 175.2C213.073 188.8 197.54 195.6 175.273 195.6C163.673 195.6 153.607 193.267 145.073 188.6C136.54 183.8 132.273 176.667 132.273 167.2C132.273 153.733 141.54 142.2 160.073 132.6C142.74 126.2 134.073 116.733 134.073 104.2C134.073 96.6 136.207 90.2 140.473 85C144.74 79.8 150.34 75.9333 157.273 73.4C164.34 70.8667 172.007 69.6 180.273 69.6C186.407 69.6 192.673 71.0667 199.073 74C205.473 76.8 209.873 80.4667 212.273 85C214.673 90.0667 215.873 94.8 215.873 99.2C215.873 104.933 214.673 110.2 212.273 115C210.007 119.8 205.807 124.4 199.673 128.8ZM178.873 122.8C183.14 120 186.407 117.733 188.673 116C191.073 114.133 193.073 111.933 194.673 109.4C196.407 106.733 197.273 103.667 197.273 100.2C197.273 96.2 195.673 92.8667 192.473 90.2C189.273 87.5333 185.407 86.2 180.873 86.2C171.14 86.2 164.34 87.8667 160.473 91.2C156.74 94.5333 154.873 98.4667 154.873 103C154.873 106.6 156.073 109.667 158.473 112.2C160.873 114.6 163.54 116.533 166.473 118C169.54 119.333 173.673 120.933 178.873 122.8ZM205.473 158.6C205.473 156.333 204.007 153.933 201.073 151.4C198.273 148.867 194.94 146.667 191.073 144.8C187.207 142.8 183.94 141.467 181.273 140.8C176.74 142.667 171.74 145.667 166.273 149.8C160.807 153.8 157.473 156.733 156.273 158.6C154.94 160.467 154.007 162.067 153.473 163.4C153.073 164.6 152.873 166.067 152.873 167.8C152.873 169.8 154.073 171.733 156.473 173.6C158.873 175.333 161.74 176.733 165.073 177.8C168.407 178.867 171.273 179.4 173.673 179.4C183.14 179.4 190.807 177.533 196.673 173.8C202.54 169.933 205.473 164.867 205.473 158.6Z" fill="white"/>
</svg>

<svg xmlns="http://www.w3.org/2000/svg" width="250" height="250" fill="none" viewBox="0 0 250 250"><rect width="250" height="250" fill="#0c6" rx="30"/><path fill="#fff" d="M56.2 174.2q6.8.4 9 .4 6.8 0 12-.2 5.4-.2 9.2-.4 9.8-.6 17.6-.6 7.6 0 11.2 4t3.6 10.6q0 3.2-4.2 5.2-4.2 1.8-8.6 1.8-3.8 0-15.8-.8-14.4-1.2-22.6-1.2-4.4 0-10.4.6-2.4.2-5.8.4t-7.6.2q-8 0-12.2-2.2t-4.2-8q0-5 4-10.2t11.2-12.4l4.8-4.8q3.2-3.4 11.8-11.6 14.2-12.8 22-22.6 8-9.8 8-19.4 0-6.2-6-10-5.8-4-13.4-4-11.6 0-16.8 5.2-5 5-5 14.6 0 2.4-2.8 4.4-2.6 1.8-6.6 1.8-5.6 0-7.8-4t-2.2-9.8q0-9.2 5.6-16.2 5.6-7.2 15.2-11.2 9.8-4 21.6-4 8.4 0 17.4 4.2 9.2 4 15.2 11 6.2 6.8 6.2 15 0 12.4-6.2 23.6t-14.6 20q-8.2 8.6-21.4 20.4-6.4 5.4-11.4 10.2m143.473-45.4q12.2 4.8 19.6 12.8t7.4 18.4q0 3-1.4 7.6-1.2 4.4-3.4 7.6-13.2 20.4-46.6 20.4-17.4 0-30.2-7-12.8-7.2-12.8-21.4 0-20.2 27.8-34.6-26-9.6-26-28.4 0-11.4 6.4-19.2t16.8-11.6q10.6-3.8 23-3.8 9.2 0 18.8 4.4 9.6 4.2 13.2 11 3.6 7.6 3.6 14.2 0 8.6-3.6 15.8-3.399 7.2-12.6 13.8m-20.8-6q6.4-4.2 9.8-6.8 3.6-2.8 6-6.6 2.6-4 2.6-9.2 0-6-4.8-10t-11.6-4q-14.6 0-20.4 5-5.6 5-5.6 11.8 0 5.4 3.6 9.2 3.6 3.6 8 5.8 4.6 2 12.4 4.8m26.6 35.8q0-3.4-4.4-7.2-4.2-3.8-10-6.6-5.8-3-9.8-4-6.8 2.8-15 9-8.2 6-10 8.8-2 2.8-2.8 4.8-.6 1.8-.6 4.4 0 3 3.6 5.8 3.6 2.6 8.6 4.2t8.6 1.6q14.2 0 23-5.6 8.8-5.8 8.8-15.2"/></svg>
